X:158
T: Sibao kang changgong
N: C1654
O: China, bei Henan, Lushi
S: IV, 140]
N: F ZHI-D JIAO
R: Shange, Mengjiangn diao, Tianyang haozi, Lushi haozi]
M: 2/4
L: 1/16
K: Bb
g2b2g2f2 | f4g4 | c4f2d2 | c8- | c8
d2c2b2g2 | f4f2g2 | c4b2g2 | f8 | f4z4
g4g2c2 | g4b4 | g4f4 | f8
d4f4 | f4f2g2 | c4d2c2 | b4b2g2
c4b2b2 | g4f2f2 | g2b2g2f2 | gf3-f4- | f8
f4f2g2 | c8 | d2c2b2g2 | f8
f6c2 | d4d2b2 | c8
c6d2 | f4b2g2 | f4f2d2 | c4b2g2
c4c4 | f4f2g2 | c4b2g2 | f8- | f2d4z2

